X:1
T:Qui puo mirarvi
T:Chi puo mirarvi
T:Giovanni Brachrogge
T:Source : Madrigaletti a 3 voci---Libro I---Copenhagen---H.Waldkirch---1619. Editor : André Vierendeels (21/03/14).
T:Notes : Original clefs : C1, C1, F4 Editorial accidentals above the staff
C:Giovanni Brachrogge
%%score [ 1 2 3 ]
L:1/8
Q:1/4=130
M:3/2
K:F
V:1 treble nm="Soprano 1" snm="S 1"
V:2 treble nm="Soprano 2" snm="S 2"
V:3 bass nm="Bass" snm="B"
V:1
 c4 c4 B4 | A8 G4 | c4 d6 d2 | e8 c4 | c2 B2 A2 G2 F4 | G2 F2 E2 D2 C4 | F2 G2 A2 B2 c4- | %7
w: Chi puo mi-|rar- vi,|e non lo-|dar- vi,|fa la la la la,|fa la la la la,|fa la la la la|
 c2 d2 e2 f2 c2 cB | A2 c2 B2 A2 G4 | A12 :: f4 f4 d4 | e8 e4 |"^-natural" c4 d6 B2 | c8 c4 | %14
w: _ la la la la fa la|la la la la la|la.|bei gl'oc- chi|chia- ri|a me piu|ca- ri,|
 d4 A2 B2 c2 BA | G2 A2 B2 AG F2 A2 | G6 F2 G4 | A4 G2 F2 E4 | F12 :| %19
w: fa la la la la la|la la la fa la la la|la la la|la la la la|la.|
V:2
 A4 A4 d4 | c8 c4 | G4 =B6 B2 | c8 G4 | A2 B2 c4 d4 | d4 c4 c2 B2 | A2 G2 F2 ED C2 D2 | %7
w: Chi puo mi-|rar- vi,|e non lo-|dar- vi,|fa la la la|la la la la|fa le la la la la la|
 E2 F2 G4 G4 | A3 A G2 F2 F2 E2 | F12 :: c4 c4 =B4 | c8 c4 | G4 G6 G2 | G8 G4 | B4 F2 G2 A2 GF | %15
w: la la la la|la la la la la la|la.|bei gl'oc- chi|chia- ri|a me piu|ca- ri,|fa la la la la la|
 E2 F2 G2 FE D2 F2 | E6 D2 E4 | F2 c2 B2 A2 G4 | A12 :| %19
w: la la la fa la la la|la la la|la la la la la|la.|
V:3
 F,4 F,4 B,,4 | F,,8 C,4 | C,4 G,,6 G,,2 | C,8 C,4 | F,,4 F,2 E,2 D,2 C,2 | %5
w: Chi puo mi-|rar- vi,|e non lo-|dar- vi,|fa la la la la|
 B,,4 C,2 B,,2 A,,2 G,,2 | F,,6 G,,2 A,,2 B,,2 | C,6 D,2 E,2 C,2 | F,4 B,,4 C,4 | F,,12 :: %10
w: la la la la la|la la la la|la la la la|la la la|la.|
 F,4 F,4 F,4 | C,8 C,4 | C,4 G,,6 G,,2 | C,8 C,4 | B,,2 C,2 D,2 C,B,, A,,2 B,,2 | %15
w: bei gl'oc- chi|chia- ri|a ma piu|ca- ri|fa la la la la la la|
 C,2 B,,A,, G,,2 A,,2 B,,2 F,,2 | C,6 D,2 C,4 | A,,4 B,,4 C,4 | F,,12 :| %19
w: la la la la la la la|la la la|la la la|la.|

